X: 2703
T: Banks Of Lough Gowna, The
R: jig
M: 6/8
K: Bminor
~B3 BAF|FEF DFA|BdB BAF|d2e fed|
~B3 BAF|FEF DFA|def geg|fdB B2A:|
def ~a3|afb afe|dFA def|gag fdB|
def ~a3|afb afe|def geg|fdB B2A:|

